!!!SOCIAL_FUNCTION:	songs in honor of an individual
!!!PDT:	1918

Specific Region: Dakotas, Minnesota, Montana, Nebraska
!!!REG: Dakotas and Montana
!!!LING_GROUP: Siouan
!!!LANG: Tone
!!!OTL@ENG: A Short Time
!!!ONM: No. 231
**kern
*Imale
*clefF4
*k[f#c#]
*M2/4
*MM80
4f#
8.f#
16e
=2
16e
8.d
4d
=3||
*M3/4
4d
4.d
16f#
16e
=4||
*M2/4
16e
8.d
4B
=5
24B
24B
24A
8F#
12B
12B
12B
=6
16B
16B
16B
16A
8.F#
16F#
=7
2F#
=8
2F#
=9||
*M3/4
16B
8.d
16d
8.d
4d
=10
32f#
16.e
32e
16.d
16d
8.B
8.B
16A
=11||
*M2/4
16F#
8.B
16B
8.B
=12
16B
8.A
8.F#
16F#
=13
2F#
=14
4F#
4r
==
*-
!!!CNT: Native American -- Sioux
!!!MRD: 1911/07//-1914///
!!!OCL: Frances Densmore
!!!YOR1: Teton Sioux Music, Bulletin 61,
!!!YOR2: Bureau of American Ethnology, Smithsonian Institution
!!!PPR: Government Printing Office
!!!PPP: Washington, D.C.
!!!PDT: 1918///
!!!ENC: Craig Stuart Sapp
!!!END: 2002/03/25/
!!!EEV: 2002/03/31/
!!!AGN: Song in Honor of an Individual
!!!MPN@@SIO: Chetang'-hota
!!!MPN@ENG: Gray Hawk
!!!TXO: Teton Sioux
!!!MLC: Standing Rock Reservation, South Dakota, United States of America
!!!ARL: 45.9/-100.7#
!!!catalog: Catalogue No. 558
!!!PPG: 509
!!!EFL: 236/245
!!!VTS: 606248269
